brandsearch/.development/src/assets/images/icons/icon-flower.svg

<svg width="60" height="60" viewBox="0 0 60 60" fill="none" xmlns="http://www.w3.org/2000/svg">
<path d="M56.4831 0C44.4874 0 30.0001 8.61329 30.0001 19.3094C30.0001 21.798 30.9408 24.0593 32.7044 26.0707C30.9155 30.6588 30.0263 35.9381 30.0001 41.9958C29.5198 40.7304 28.9568 39.5254 28.3464 38.3538C29.4249 36.6946 30.0001 34.8895 30.0001 32.9458C30.0001 22.2497 15.5127 13.6364 3.51703 13.6364C1.57807 13.6364 0 15.2144 0 17.1533C0 29.149 8.61329 43.6364 19.3106 43.6364C21.9582 43.6364 24.3574 42.5975 26.4619 40.6014C28.8472 45.6355 30.0001 51.576 30.0001 58.6363C30.0001 59.3901 30.61 60 31.3637 60C32.1175 60 32.7274 59.3901 32.7274 58.6363V42.2727C32.7274 36.8637 33.4294 32.1748 34.8557 28.078C36.628 29.3476 38.5809 29.9999 40.6895 29.9999C51.3868 29.9999 60.0001 15.5126 60.0001 3.51691C60 1.57807 58.4221 0 56.4831 0ZM26.7365 35.5815C23.0142 29.885 17.5215 25.3987 10.1221 21.9461C9.44029 21.6317 8.62927 21.926 8.30966 22.6052C7.99134 23.287 8.28563 24.0994 8.96881 24.4176C16.3794 27.876 21.6872 32.3196 25.1219 38.0714C25.0107 38.1936 24.9264 38.3228 24.8065 38.4428C23.1699 40.0794 21.3202 40.9091 19.3106 40.9091C10.379 40.9091 2.72723 27.8467 2.72723 17.1533C2.72723 16.7179 3.08148 16.3636 3.51691 16.3636C14.2103 16.3636 27.2727 24.0154 27.2727 32.9456C27.2727 33.8609 27.0781 34.7379 26.7365 35.5815ZM40.6894 27.2727C38.9662 27.2727 37.37 26.6253 35.9155 25.4196C38.8221 19.0945 43.7749 14.3537 51.0565 10.7692C51.733 10.4363 52.0099 9.61863 51.6784 8.9435C51.3429 8.26837 50.5252 7.99134 49.8527 8.32155C42.4293 11.9768 37.191 16.8777 33.962 23.2689C33.1579 22.0377 32.7273 20.7159 32.7273 19.3092C32.7273 10.379 45.7897 2.72723 56.4831 2.72723C56.9185 2.72723 57.2728 3.08148 57.2728 3.51691C57.2728 14.2103 49.621 27.2727 40.6894 27.2727Z" fill="#3692E4"/>
</svg>

<svg width="60" height="60" fill="none" xmlns="http://www.w3.org/2000/svg"><path d="M56.483 0C44.487 0 30 8.613 30 19.31c0 2.488.94 4.75 2.704 6.76-1.788 4.589-2.678 9.868-2.704 15.926a33.944 33.944 0 00-1.654-3.642C29.425 36.694 30 34.889 30 32.946c0-10.696-14.487-19.31-26.483-19.31A3.521 3.521 0 000 17.153C0 29.15 8.613 43.636 19.31 43.636c2.648 0 5.047-1.039 7.152-3.035C28.847 45.636 30 51.576 30 58.636a1.363 1.363 0 102.727 0V42.273c0-5.41.702-10.098 2.129-14.195C36.628 29.348 38.58 30 40.69 30 51.386 30 60 15.513 60 3.517A3.521 3.521 0 0056.483 0zM26.737 35.581c-3.723-5.696-9.215-10.182-16.615-13.635a1.37 1.37 0 00-1.812.66 1.363 1.363 0 00.659 1.812c7.41 3.458 12.718 7.902 16.153 13.653-.111.123-.196.252-.316.372-1.636 1.636-3.486 2.466-5.495 2.466-8.932 0-16.584-13.062-16.584-23.756a.79.79 0 01.79-.79c10.693 0 23.756 7.652 23.756 16.583 0 .915-.195 1.792-.537 2.636zm13.952-8.308c-1.723 0-3.319-.648-4.773-1.853 2.906-6.326 7.859-11.066 15.14-14.65a1.364 1.364 0 00-1.203-2.448c-7.424 3.655-12.662 8.556-15.891 14.947-.804-1.231-1.235-2.553-1.235-3.96 0-8.93 13.063-16.582 23.756-16.582a.79.79 0 01.79.79c0 10.693-7.652 23.756-16.584 23.756z" fill="url(#paint0_linear)"/><defs><linearGradient id="paint0_linear" x1="30" y1="0" x2="30" y2="60" gradientUnits="userSpaceOnUse"><stop stop-color="#00AFEC"/><stop offset="1" stop-color="#307ABD"/></linearGradient></defs></svg>
